figures-source/3.14.svg

<svg xmlns:rdf="http://www.w3.org/1999/02/22-rdf-syntax-ns#" xmlns="http://www.w3.org/2000/svg" height="290.74" width="294.29" version="1.1" xmlns:cc="http://creativecommons.org/ns#" xmlns:dc="http://purl.org/dc/elements/1.1/">
 <metadata>
  <rdf:RDF>
   <cc:Work rdf:about="">
    <dc:format>image/svg+xml</dc:format>
    <dc:type rdf:resource="http://purl.org/dc/dcmitype/StillImage"/>
    <dc:title/>
   </cc:Work>
  </rdf:RDF>
 </metadata>
 <defs>
  <marker id="Arrow1Lend" refY="0" refX="0" orient="auto">
   <path style="marker-start:none;" d="m-10,0,0-2,10,2-10,2z" fill-rule="evenodd" stroke="#000" stroke-width="1px"/>
  </marker>
 </defs>
 <g transform="translate(-111.24,-138)">
  <rect rx="8.0854" ry="18" height="36" width="48.158" stroke="#616161" y="265.37" x="190.05" stroke-width="3px" fill="#d3f5d6"/>
  <text font-family="Helvetica" font-size="12px" stroke="#000000" y="265.37" x="190.05499" stroke-width="0px" fill="#000000">
   <tspan font-size="12px" fill="#000000" style="text-anchor:middle;text-align:center;" stroke="#000000" y="289.37" x="214.13374" font-family="&apos;LucidaGrande" text-align="center">C1</tspan>
  </text>
  <rect rx="8.0854" ry="18" height="36" width="48.158" stroke="#616161" y="265.37" x="112.74" stroke-width="3px" fill="#d3f5d6"/>
  <text font-family="Helvetica" font-size="12px" stroke="#000000" y="265.37" x="112.74" stroke-width="0px" fill="#000000">
   <tspan font-size="12px" fill="#000000" style="text-anchor:middle;text-align:center;" stroke="#000000" y="289.37" x="136.81876" font-family="&apos;LucidaGrande" text-align="center">C0</tspan>
  </text>
  <path style="marker-start:none;marker-end:url(#Arrow1Lend);" fill="none" d="m188.56,283.37-26.157,0" stroke="#000"/>
  <rect rx="8.0854" ry="18" height="36" width="48.158" stroke="#616161" y="265.37" x="267.37" stroke-width="3px" fill="#d3f5d6"/>
  <text font-family="Helvetica" font-size="12px" stroke="#000000" y="265.37" x="267.37" stroke-width="0px" fill="#000000">
   <tspan font-size="12px" fill="#000000" style="text-anchor:middle;text-align:center;" stroke="#000000" y="289.37" x="291.44876" font-family="&apos;LucidaGrande" text-align="center">C2</tspan>
  </text>
  <path style="marker-start:none;marker-end:url(#Arrow1Lend);" fill="none" d="m265.87,283.37-26.158,0" stroke="#000"/>
  <rect height="36" width="70.022" stroke="#616161" y="139" x="334.51" stroke-width="2px" fill="#EEE"/>
  <text font-family="Luxi Sans" font-size="10px" stroke="#cccccc" y="139" x="334.50601" stroke-width="0px" fill="#cccccc">
   <tspan font-size="10px" fill="#777777" style="text-anchor:middle;text-align:center;" stroke="#777777" y="162" x="369.51709" font-family="&apos;LucidaGrande" text-align="center">master</tspan>
  </text>
  <path style="marker-start:none;marker-end:url(#Arrow1Lend);" fill="none" d="m369.4,176-0.524,87.87" stroke="#000"/>
  <rect height="36" width="70.022" stroke="#616161" y="391.74" x="334.51" stroke-width="2px" fill="#EEE"/>
  <text font-family="Luxi Sans" font-size="10px" stroke="#cccccc" y="391.73999" x="334.50601" stroke-width="0px" fill="#cccccc">
   <tspan font-size="10px" fill="#777777" style="text-anchor:middle;text-align:center;" stroke="#777777" y="414.73999" x="369.51709" font-family="&apos;LucidaGrande" text-align="center">iss53</tspan>
  </text>
  <path style="marker-start:none;marker-end:url(#Arrow1Lend);" fill="none" d="m369.52,390.74,0-31.61" stroke="#000"/>
  <rect rx="8.0854" ry="18" height="36" width="48.158" stroke="#616161" y="321.63" x="345.44" stroke-width="3px" fill="#d3f5d6"/>
  <text font-family="Helvetica" font-size="12px" stroke="#000000" y="321.63" x="345.43799" stroke-width="0px" fill="#000000">
   <tspan font-size="12px" fill="#000000" style="text-anchor:middle;text-align:center;" stroke="#000000" y="345.63" x="369.51675" font-family="&apos;LucidaGrande" text-align="center">C3</tspan>
  </text>
  <path style="marker-start:none;marker-end:url(#Arrow1Lend);" fill="none" d="M347.46,323.74,313.5,299.26" stroke="#000"/>
  <rect rx="8.0854" ry="18" height="36" width="48.158" stroke="#616161" y="265.37" x="344.68" stroke-width="3px" fill="#d3f5d6"/>
  <text font-family="Helvetica" font-size="12px" stroke="#000000" y="265.37" x="344.685" stroke-width="0px" fill="#000000">
   <tspan font-size="12px" fill="#000000" style="text-anchor:middle;text-align:center;" stroke="#000000" y="289.37" x="368.76376" font-family="&apos;LucidaGrande" text-align="center">C4</tspan>
  </text>
  <path style="marker-start:none;marker-end:url(#Arrow1Lend);" fill="none" d="m343.18,283.37-26.158,0" stroke="#000"/>
  <rect height="36" width="70.022" stroke="#616161" y="196" x="334.51" stroke-width="2px" fill="#EEE"/>
  <text font-family="Luxi Sans" font-size="10px" stroke="#cccccc" y="196" x="334.50601" stroke-width="0px" fill="#cccccc">
   <tspan font-size="10px" fill="#777777" style="text-anchor:middle;text-align:center;" stroke="#777777" y="219" x="369.51709" font-family="&apos;LucidaGrande" text-align="center">hotfix</tspan>
  </text>
  <path style="marker-start:none;marker-end:url(#Arrow1Lend);" fill="none" d="m369.31,233-0.335,30.87" stroke="#000"/>
 </g>
</svg>

<?xml version="1.0" encoding="utf-8"?>
<svg xmlns="http://www.w3.org/2000/svg" xmlns:xlink="http://www.w3.org/1999/xlink">
	<defs>
		<marker id="Arrow1Lend" orient="auto" refX="0.0" refY="0.0" style="overflow:visible;">
			
              
			<path d="M -10,0.0 L -10.0,-2.0 L 0.0,0.0 L -10.0,2.0 z " id="path3666" style="fill-rule:evenodd;stroke:#000000;stroke-width:1.0px;marker-start:none;"/>
			
            
		</marker>
	</defs>
	<g style="stroke:#000000;fill:#fff">
		<rect height="36.0" id="1299" rx="8.08543259671" ry="18.0" style="stroke:#616161;stroke-width:3.000000px;fill:#d3f5d6" width="48.1575" x="190.055" y="265.37"/>
		<text id="1299_text" style="fill:#000000;stroke:#000000;stroke-width:0px;font-family: Helvetica;font-size:12px" x="190.055" y="265.37">
			<tspan fill="#000000" font-family="LucidaGrande;" font-size="12.0px" id="1299_line1" stroke="#000000" text-align="center" text-anchor="middle" x="214.13375" y="289.37">
				C1
			</tspan>
		</text>
		<rect height="36.0" id="1302" rx="8.08543259671" ry="18.0" style="stroke:#616161;stroke-width:3.000000px;fill:#d3f5d6" width="48.1575" x="112.74" y="265.37"/>
		<text id="1302_text" style="fill:#000000;stroke:#000000;stroke-width:0px;font-family: Helvetica;font-size:12px" x="112.74" y="265.37">
			<tspan fill="#000000" font-family="LucidaGrande;" font-size="12.0px" id="1302_line1" stroke="#000000" text-align="center" text-anchor="middle" x="136.81875" y="289.37">
				C0
			</tspan>
		</text>
		<path d="M 188.555,283.37 L 162.398,283.37" id="1303" style="marker-start:none;stroke:#000000;marker-end:url(#Arrow1Lend);fill:none"/>
		<rect height="36.0" id="1304" rx="8.08543259671" ry="18.0" style="stroke:#616161;stroke-width:3.000000px;fill:#d3f5d6" width="48.1575" x="267.37" y="265.37"/>
		<text id="1304_text" style="fill:#000000;stroke:#000000;stroke-width:0px;font-family: Helvetica;font-size:12px" x="267.37" y="265.37">
			<tspan fill="#000000" font-family="LucidaGrande;" font-size="12.0px" id="1304_line1" stroke="#000000" text-align="center" text-anchor="middle" x="291.44875" y="289.37">
				C2
			</tspan>
		</text>
		<path d="M 265.87,283.37 L 239.712,283.37" id="1306" style="marker-start:none;stroke:#000000;marker-end:url(#Arrow1Lend);fill:none"/>
		<rect height="36.0" id="1316" style="stroke:#616161;stroke-width:2.000000px;fill:#eeeeee" width="70.0222" x="334.506" y="139.0"/>
		<text id="1316_text" style="fill:#cccccc;stroke:#cccccc;stroke-width:0px;font-family: Luxi Sans;font-size:10px" x="334.506" y="139.0">
			<tspan fill="#777777" font-family="LucidaGrande;" font-size="10.0px" id="1316_line1" stroke="#777777" text-align="center" text-anchor="middle" x="369.5171" y="162.0">
				master
			</tspan>
		</text>
		<path d="M 369.404,176.0 L 368.88,263.87" id="1334" style="marker-start:none;stroke:#000000;marker-end:url(#Arrow1Lend);fill:none"/>
		<rect height="36.0" id="1335" style="stroke:#616161;stroke-width:2.000000px;fill:#eeeeee" width="70.0222" x="334.506" y="391.74"/>
		<text id="1335_text" style="fill:#cccccc;stroke:#cccccc;stroke-width:0px;font-family: Luxi Sans;font-size:10px" x="334.506" y="391.74">
			<tspan fill="#777777" font-family="LucidaGrande;" font-size="10.0px" id="1335_line1" stroke="#777777" text-align="center" text-anchor="middle" x="369.5171" y="414.74">
				iss53
			</tspan>
		</text>
		<path d="M 369.517,390.74 L 369.517,359.13" id="1336" style="marker-start:none;stroke:#000000;marker-end:url(#Arrow1Lend);fill:none"/>
		<rect height="36.0" id="1337" rx="8.08543259671" ry="18.0" style="stroke:#616161;stroke-width:3.000000px;fill:#d3f5d6" width="48.1575" x="345.438" y="321.63"/>
		<text id="1337_text" style="fill:#000000;stroke:#000000;stroke-width:0px;font-family: Helvetica;font-size:12px" x="345.438" y="321.63">
			<tspan fill="#000000" font-family="LucidaGrande;" font-size="12.0px" id="1337_line1" stroke="#000000" text-align="center" text-anchor="middle" x="369.51675" y="345.63">
				C3
			</tspan>
		</text>
		<path d="M 347.462,323.736 L 313.503,299.264" id="1338" style="marker-start:none;stroke:#000000;marker-end:url(#Arrow1Lend);fill:none"/>
		<rect height="36.0" id="1339" rx="8.08543259671" ry="18.0" style="stroke:#616161;stroke-width:3.000000px;fill:#d3f5d6" width="48.1575" x="344.685" y="265.37"/>
		<text id="1339_text" style="fill:#000000;stroke:#000000;stroke-width:0px;font-family: Helvetica;font-size:12px" x="344.685" y="265.37">
			<tspan fill="#000000" font-family="LucidaGrande;" font-size="12.0px" id="1339_line1" stroke="#000000" text-align="center" text-anchor="middle" x="368.76375" y="289.37">
				C4
			</tspan>
		</text>
		<path d="M 343.185,283.37 L 317.027,283.37" id="1340" style="marker-start:none;stroke:#000000;marker-end:url(#Arrow1Lend);fill:none"/>
		<rect height="36.0" id="1341" style="stroke:#616161;stroke-width:2.000000px;fill:#eeeeee" width="70.0222" x="334.506" y="196.0"/>
		<text id="1341_text" style="fill:#cccccc;stroke:#cccccc;stroke-width:0px;font-family: Luxi Sans;font-size:10px" x="334.506" y="196.0">
			<tspan fill="#777777" font-family="LucidaGrande;" font-size="10.0px" id="1341_line1" stroke="#777777" text-align="center" text-anchor="middle" x="369.5171" y="219.0">
				hotfix
			</tspan>
		</text>
		<path d="M 369.311,233.0 L 368.976,263.87" id="1342" style="marker-start:none;stroke:#000000;marker-end:url(#Arrow1Lend);fill:none"/>
	</g>
</svg>
